packages/icons/src/emoji/svg/sprout.svg

<svg width="120" height="120" viewBox="0 0 120 120" fill="none" xmlns="http://www.w3.org/2000/svg">
<path d="M119.157 37.0968C117.188 28.4062 109.013 17.9062 96.2536 15.5624C82.7067 13.0687 69.4129 18.0187 62.0723 32.7749C60.3277 36.2973 59.0603 40.0365 58.3036 43.8937C54.2067 37.0593 46.3317 27.6468 33.6004 26.3718C15.4692 24.5718 4.80981 35.1374 1.81918 43.8749C-2.27769 55.8093 1.50043 65.6062 10.2754 66.9093C19.0598 68.2124 25.2942 62.7281 30.9661 59.7468C39.1786 55.4249 53.1473 55.0687 56.0911 63.2999C56.5036 65.4843 56.8692 67.678 57.1692 69.8718C58.3129 78.403 57.3286 86.7374 54.6567 95.0624C53.8129 97.7062 52.6598 100.537 51.3004 103.144C49.4536 106.697 47.5973 108.956 49.2004 110.916C50.5598 112.575 53.1473 113.166 55.4911 113.166C62.8786 113.166 64.1254 109.697 64.1254 109.697C64.1254 109.697 73.4161 94.0124 65.8223 63.7687L65.8786 63.8437C63.8723 53.1374 76.5192 50.9999 80.1192 50.9062C87.3754 50.7374 98.4848 53.2874 105.45 54.1874C121.238 56.2218 120.582 43.4062 119.157 37.0968Z" fill="#757F3F"/>
<path d="M25.2468 42.7782C26.0624 41.4094 26.9999 40.1344 28.0406 38.9251C29.1374 37.6501 31.6312 36.3001 31.7249 34.4438C31.8656 31.9501 27.9656 32.2032 26.4281 32.3157C25.4249 32.3813 24.4218 32.5032 23.4374 32.6907C21.6562 33.0188 19.9124 33.5344 18.2624 34.2563C15.4406 35.4938 12.8812 37.3126 10.8281 39.6188C9.32807 41.3063 8.03432 43.2751 7.30307 45.4219C5.57807 50.4094 5.62494 55.1344 7.39682 58.0501C8.38119 59.6719 9.85307 60.6376 11.7749 60.9188C19.8093 62.1094 21.4968 53.1563 23.3812 47.2969C23.8687 45.7688 24.4218 44.1657 25.2468 42.7782ZM68.0906 34.8751C67.6312 36.4969 67.4906 38.2688 68.3343 39.4782C68.9437 40.3407 70.5281 40.7907 71.5499 40.5376C74.5687 39.7969 76.7156 35.7188 78.2156 33.2813C79.3781 31.3876 80.8593 29.5782 82.4156 27.9938C83.3906 27.0001 84.6843 25.8657 85.0218 24.4501C85.6406 21.8344 81.6468 22.8751 80.4656 23.1657C75.8531 24.3282 71.4281 27.9938 69.1968 32.1657C68.8031 32.8969 68.3812 33.8532 68.0906 34.8751Z" fill="#BDCF46"/>
</svg>

<svg xmlns="http://www.w3.org/2000/svg" fill="none" aria-hidden="true" data-slot="icon" viewBox="0 0 120 120"><path fill="#757F3F" d="M119.157 37.097c-1.969-8.69-10.144-19.19-22.903-21.535-13.547-2.493-26.841 2.457-34.182 17.213a44.2 44.2 0 0 0-3.768 11.119C54.207 37.059 46.332 27.647 33.6 26.372c-18.13-1.8-28.79 8.765-31.78 17.503-4.098 11.934-.32 21.731 8.455 23.034 8.785 1.303 15.02-4.18 20.691-7.162 8.213-4.322 22.181-4.678 25.125 3.553a131 131 0 0 1 1.078 6.572c1.144 8.531.16 16.865-2.512 25.19a52 52 0 0 1-3.357 8.082c-1.846 3.553-3.703 5.812-2.1 7.772 1.36 1.659 3.947 2.25 6.291 2.25 7.388 0 8.634-3.469 8.634-3.469s9.291-15.685 1.697-45.928l.057.075C63.872 53.137 76.519 51 80.119 50.906c7.256-.169 18.366 2.381 25.331 3.281 15.788 2.035 15.132-10.78 13.707-17.09"/><path fill="#BDCF46" d="M25.247 42.778a27.4 27.4 0 0 1 2.794-3.853c1.096-1.275 3.59-2.625 3.684-4.481.14-2.494-3.76-2.24-5.297-2.128a25 25 0 0 0-2.99.375 23.6 23.6 0 0 0-5.176 1.565c-2.821 1.238-5.38 3.057-7.434 5.363-1.5 1.687-2.794 3.656-3.525 5.803-1.725 4.987-1.678 9.712.094 12.628.984 1.622 2.456 2.588 4.378 2.869 8.034 1.19 9.722-7.763 11.606-13.622.488-1.528 1.04-3.131 1.866-4.519m42.844-7.903c-.46 1.622-.6 3.394.243 4.603.61.863 2.194 1.313 3.216 1.06 3.019-.741 5.166-4.82 6.666-7.257 1.162-1.893 2.643-3.703 4.2-5.287.975-.994 2.268-2.128 2.606-3.544.619-2.616-3.375-1.575-4.556-1.284-4.613 1.162-9.038 4.828-11.27 9a14 14 0 0 0-1.105 2.71"/></svg>
